src/icons/favBg.svg

<svg height="468" viewBox="0 0 476.004 468" width="476.004" xmlns="http://www.w3.org/2000/svg"><g stroke="#999" stroke-width="8"><path d="m268.091 85.951-71.225-82.951h-168.784a25.2 25.2 0 0 0 -25.082 25.891l11.288 409.726a25.029 25.029 0 0 0 25.079 24.383h398.009a24.658 24.658 0 0 0 24.578-23.88l9.029-327.279a25.192 25.192 0 0 0 -25.083-25.89z" fill="#fff" stroke-miterlimit="10" transform="translate(1.003 1)"/><path d="m142.478 75.206h168.031v-37.619c0-13.794-11.286-25.079-25.079-27.587h-199.13z" fill="none" stroke-miterlimit="10" transform="translate(126.616 11.556)"/><path d="m135.831 3.875c-35.24-13.647-53.97 13.167-54.291 13.625-.32-.458-19.051-27.272-54.29-13.625-35.263 13.67-51.337 81.4 47.856 134.914a15.24 15.24 0 0 0 6.411 2.015h.023a14.9 14.9 0 0 0 6.411-2.015c99.217-53.512 83.142-121.244 47.88-134.914z" fill="#e0e0e0" transform="translate(155.699 182.642)"/></g><path d="m3 3 4.263 157a22.972 22.972 0 0 0 22.822 22.321h121.134" style="fill:none;stroke:#e0e0e0;stroke-linecap:round;stroke-linejoin:round;stroke-miterlimit:10;stroke-width:24" transform="translate(41.128 250.333)"/></svg>

<svg xmlns="http://www.w3.org/2000/svg" width="476.004" height="468" viewBox="0 0 476.004 468">
  <g id="组_3496" data-name="组 3496" transform="translate(-113.999 -175)">
    <g id="组_474" data-name="组 474" transform="translate(118 179)">
      <g id="组_472" data-name="组 472">
        <path id="路径_26" data-name="路径 26" d="M268.091,85.951,196.866,3H28.082A25.2,25.2,0,0,0,3,28.891L14.288,438.617A25.029,25.029,0,0,0,39.367,463H437.376a24.658,24.658,0,0,0,24.578-23.88l9.029-327.279A25.192,25.192,0,0,0,445.9,85.951H268.091Z" transform="translate(-2.998 -3)" fill="#fff" stroke="#999" stroke-miterlimit="10" stroke-width="8"/>
        <path id="路径_27" data-name="路径 27" d="M142.478,75.206H310.509V37.587c0-13.794-11.286-25.079-25.079-27.587H86.3Z" transform="translate(122.615 7.556)" fill="none" stroke="#999" stroke-miterlimit="10" stroke-width="8"/>
      </g>
      <path id="路径_14" data-name="路径 14" d="M135.831,3.875C100.591-9.772,81.861,17.042,81.54,17.5,81.22,17.042,62.489-9.772,27.25,3.875c-35.263,13.67-51.337,81.4,47.856,134.914a15.24,15.24,0,0,0,6.411,2.015h.023a14.9,14.9,0,0,0,6.411-2.015C187.168,85.277,171.093,17.545,135.831,3.875Z" transform="translate(151.698 178.642)" fill="#e0e0e0" stroke="#999" stroke-width="8"/>
      <path id="路径_29" data-name="路径 29" d="M3,3,7.263,160a22.972,22.972,0,0,0,22.822,22.321H151.219" transform="translate(37.127 246.333)" fill="none" stroke="#e0e0e0" stroke-linecap="round" stroke-linejoin="round" stroke-miterlimit="10" stroke-width="24"/>
    </g>
  </g>
</svg>
